X: 50
T:Young Collins
R:Morris
S:Trad
M:4/4
L:1/8
K:G
|GABc d2 B2 | c2e2A2Bc | d2d2e2dc| B2A2G4|
|GABc d2 B2 | c2e2A2Bc | d2d2e2dc| B2A2G4|
|E2D2EFG2| A2A2G3A|B2A2Bcd2|e2e2dcBA|
|GABc d2 B2 | c2e2A2Bc | d2d2e2dc| B2A2G4:|
